src/images/weapon-slot-energy.svg

<svg viewBox="0 0 16 16" xmlns="http://www.w3.org/2000/svg"><path d="m8.00194 0-.00193.0019c-.018898.03515-.051402.08092-.074079.117203-.5806488.94427-1.1830677 1.875549-1.7969007 2.798831-.359811.540794-.7407874 1.0701583-1.0019528 1.6699202-.2732598.624994-.3915968 1.2679748-.1935118 1.9394532.1855748.6284447.592252 1.0967622 1.099578 1.4882797l-.00756-.00378c.2728819.2138079.587452.3780322.947263.488281-.026457-.052762-.073323-.061191-.1073386-.082016-.3499842-.212485-.6451653-.4836623-.8515275-.839845-.3961701-.6850242-.343937-1.3660686.041197-2.0351546.5941795-1.0329827 1.2872315-2.0004285 1.9199244-3.0097665.00756-.0098.022677-.01512.038929-.02343.1096063.172157.216189.342501.3261733.511718.5386582.8348296 1.1060409 1.6528138 1.6035401 2.513673.5397166.9328478.3779526 1.9031055-.4336252 2.6093744l.00756-.00378c-.072945.061304-.1489134.120378-.2286615.1777512l.060472.062513c.3996881-.1753216.7452503-.4310029 1.0507873-.7479956.694072-.7190249.920164-1.5583786.660132-2.5273436-.147023-.5476989-.426633-1.0322532-.732397-1.5000004-.7506515-1.150386-1.5214483-2.288069-2.2343806-3.462893-.026457-.04411-.080504-.122533-.091843-.142564zm-.00193 4.4082028c-.015118.03137-.018898.044939-.026457.056655-.3484724.5912617-.7080189 1.1740498-1.0292787 1.7812497-.2932914.5546041-.1776378 1.0991055.3027401 1.5039081.1390866.1175055.2917795.2003527.4512.246085l-.018898-1.326172 1.0703244 1.095704c.4659433-.3726613.6038205-.9100006.3594362-1.4316434-.144-.3067842-.3208819-.5945612-.49217-.8867187-.1976693-.3381165-.3970394-.6762255-.6113386-1.0390601z" fill="#f0631e"/><path d="m4.2500031 7.4999999c-2.3481071 0-4.2500031 1.9019641-4.2500031 4.2499991 0 2.348213 1.9018582 4.25 4.2500031 4.25 2.0518299 0 3.7629354-1.451562 4.1620913-3.384768l-.7323969-.332031-.3945448-.783205c-.030236.381804-.1239685.758033-.2849764 1.10742-.1114961.225676-.2520945.438648-.4277291.613282-.1783937.174576-.3926552.3072-.6210898.378908.1938898-.137612.3541417-.307048.4765606-.496093.1194331-.190639.2112756-.395622.263811-.613281.1198111-.427434.1273701-.880944.0763465-1.316409-.0529134-.435364-.184063-.851826-.4042961-1.2050763-.2180787-.3556913-.5216881-.6597241-.8749984-.8886727-.1806614-.1193953-.3511181-.204926-.5507905-.2656252-.1938898-.072-.4008945-.1004977-.6133039-.1152378-.2101418-.010961-.4378961-.010583-.6503811.00567-.2124095.016252-.4237229.06395-.630841.1308472-.8314582.2636969-1.5611338.8746576-2.09767554 1.6582028.28157484-.9140032.97062044-1.741149 1.90820784-2.158201v.00983c.2335748-.1068094.4806425-.1815307.7382929-.2246173.2554961-.048189.5014677-.064441.761726-.064441.2150551.00161.4340787.02948.6503811.082016a4.3437501 4.8125 0 0 1 -.5429669-.6328173c-.069921-.00341-.1402205-.00605-.2108977-.00605zm2.2949291 1.611326c.1432441.1651653.2698583.3446173.3749291.5371086.2502047.4547035.3673701.9641655.3768189 1.4589845l1.1601638.048831c-.0929764-.668318-.3390236-1.2875862-.7050709-1.8183566a4.3437501 4.8125 0 0 1 -1.2070299-.2265449zm-4.1250141.6718752c-.1938898.1376126-.3560315.3079559-.478526.4960929-.119811.190867-.2108976.396393-.263811.613282-.1194331.427355-.1273701.88281-.076347 1.318359.052913.435387.1844409.849872.4042961 1.203126.2177008.355691.5236913.6598.876926.888673.1806614.119395.3499842.204888.5488251.265625.1938898.07177.4008567.100498.613304.115238.2101417.01096.4398614.0102.6523464-.0061.2127879-.01587.4216068-.06365.6288761-.130845.8314583-.263962 1.561096-.872647 2.0976756-1.656249-.2785512.910953-.9658961 1.736575-1.9062425 2.15625v-.0079c-.2335748.106851-.4806047.181761-.7382929.224621-.2551181.04819-.5033953.06251-.7636536.06251-.2577637-.0053-.519874-.03848-.7773732-.113272-.255496-.072025-.5119748-.196863-.724611-.339842-.4356661-.287093-.8101795-.675308-1.0625008-1.13672-.255496-.464889-.3734173-.986014-.3788976-1.490233-.0035528-.504722.0869291-1.009191.2989606-1.468751.1114961-.225714.2520945-.438675.4277291-.613282.1783938-.1745759.3926174-.3090893.6210898-.3808588zm1.830085.4062499c.8632819 0 1.5624945.698075 1.5624945 1.560548 0 .863036-.6992126 1.562498-1.5624945 1.562498-.8633197 0-1.5624945-.699942-1.5624945-1.562498 0-.86304.6992126-1.560548 1.5624945-1.560548z" fill="#8e749e"/><path d="m11.488025 15.858818c0-.508093 0-.986766 0-1.464847 0-.353914-.03893-.378784-.340535-.212031q-1.022778.56287-2.0425704 1.128098c-.1938898.107641-.408189.145399-.6238111.174539-.3189921.04581-.6386267.08115-.9797291.07174.042709-.08115.1160315-.115653.1674331-.166526.303874-.290192.6138331-.574624.9165354-.866872.4769386-.459073.9489638-.9242 1.4253351-1.384422.0669-.06157.05405-.094-.026456-.133077-.531024-.276251-1.0447752-.588414-1.5908413-.834593-.3152126-.141657-.537789-.377953-.7303559-.657645.058583-.03099.1065827-.0189.1526929-.0189.4594772 0 .9185764.002 1.3780535 0 .2498268 0 .2849764-.06187.1678111-.270312-.3771969-.691833-.7544693-1.382893-1.1416819-2.0680608-.120189-.2133921-.1651654-.4425033-.1976693-.6754772-.043843-.3170645-.088819-.6363363-.069165-.9804472.1500472.1566236.2868661.2967307.4204346.4413732q.9836976 1.0555465 1.9974043 2.081722c.08353.08137.109985.06157.156473-.0189.280819-.545654.59947-1.0703469.856289-1.6284244.133417-.2901921.377197-.4795805.627288-.6659187.03893.061568.02646.1046929.02646.1515212v1.3929071c0 .2548535.04384.2840315.264945.1625197q1.042847-.5696391 2.081839-1.1470224c.195024-.1095307.406375-.155263.619994-.1836472.267213-.030992.536844-.061871.80572-.081147.05518-.00794.112252 0 .19011 0-.07446.1229103-.166677.1916977-.248693.2674772q-1.119685 1.0431516-2.207509 2.1183965c-.09373.094-.08428.131188.03024.191169.539716.281197 1.060989.596655 1.615521.849797.262677.118601.445908.334903.61697.558878.0189.01852.04384.04581.03024.07174-.01512.0189-.06274.0189-.09373.0189q-.689424 0-1.378356 0c-.05329 0-.106583.0019-.159496.0023-.118299 0-.14778.06157-.09713.159307q.181417.348473.369638.689212c.281575.512081.567231 1.022181.84771 1.534991.144756.264491.16063.563429.199559.854317.02646.157946.03893.340309.03893.52354 0 .0573-.0011.104693-.0022.155036l.000227-.0079c-.116078-.104693-.254031-.206438-.377244-.329084-.216567-.220044-.420397-.453902-.635338-.6755-.464278-.48009-.932183-.955389-1.394835-1.435502-.07786-.07174-.116032-.08115-.174236.0189-.27137.521775-.578419 1.027404-.819855 1.566984-.134174.304554-.370016.520033-.665159.724229zm.26759-4.885874c-.03024.0189-.04989.03099-.06916.06187-.222614.22303-.442696.447053-.667351.665918-.06652.06157-.05443.107074.0076.165203q.326551.319333.645846.646697c.0582.06157.096.07173.162519.0083.218079-.22647.441638-.447614.667352-.6679.04989-.0565.06123-.07174.0023-.136516-.228661-.22303-.452825-.449972-.678576-.67553-.02646-.0189-.04384-.03099-.07105-.06157z" fill="#79bbe8"/></svg>

<svg xmlns="http://www.w3.org/2000/svg" viewBox="0 0 16 16">
  <path style="fill:#f0631e" d="M 8.00194,0 8.00001,0.0019 C 7.981112,0.03705 7.948608,0.08282 7.925931,0.119103 7.3452822,1.063373 6.7428633,1.994652 6.1290303,2.917934 5.7692193,3.458728 5.3882429,3.9880923 5.1270775,4.5878542 4.8538177,5.2128482 4.7354807,5.855829 4.9335657,6.5273074 c 0.1855748,0.6284447 0.592252,1.0967622 1.099578,1.4882797 l -0.00756,-0.00378 C 6.2984656,8.225615 6.6130357,8.3898393 6.9728467,8.5000881 6.9463897,8.4473261 6.8995237,8.4388971 6.8655081,8.4180721 6.5155239,8.2055871 6.2203428,7.9344098 6.0139806,7.5782271 5.6178105,6.8932029 5.6700436,6.2121585 6.0551776,5.5430725 6.6493571,4.5100898 7.3424091,3.542644 7.975102,2.533306 7.982662,2.523506 7.997779,2.518186 8.014031,2.509876 8.1236373,2.682033 8.23022,2.852377 8.3402043,3.021594 8.8788625,3.8564236 9.4462452,4.6744078 9.9437444,5.535267 10.483461,6.4681148 10.321697,7.4383725 9.5101192,8.1446414 l 0.00756,-0.00378 c -0.072945,0.061304 -0.1489134,0.120378 -0.2286615,0.1777512 l 0.060472,0.062513 C 9.7491778,8.205804 10.09474,7.9501227 10.400277,7.63313 11.094349,6.9141051 11.320441,6.0747514 11.060409,5.1057864 10.913386,4.5580875 10.633776,4.0735332 10.328012,3.605786 9.5773605,2.4554 8.8065637,1.317717 8.0936314,0.142893 8.0671744,0.098783 8.0131274,0.02036 8.0017884,3.29e-4 Z M 8.00001,4.4082028 C 7.984892,4.4395728 7.981112,4.4531418 7.973553,4.4648578 7.6250806,5.0561195 7.2655341,5.6389076 6.9442743,6.2461075 6.6509829,6.8007116 6.7666365,7.345213 7.2470144,7.7500156 c 0.1390866,0.1175055 0.2917795,0.2003527 0.4512,0.246085 l -0.018898,-1.326172 1.0703244,1.095704 C 9.2155841,7.3929713 9.3534613,6.855632 9.109077,6.3339892 8.965077,6.027205 8.7881951,5.739428 8.616907,5.4472705 8.4192377,5.109154 8.2198676,4.771045 8.0055684,4.4082104 Z" />
  <path style="fill:#8e749e" d="M 4.2500031,7.4999999 C 1.901896,7.4999999 0,9.401964 0,11.749999 c 0,2.348213 1.9018582,4.25 4.2500031,4.25 2.0518299,0 3.7629354,-1.451562 4.1620913,-3.384768 L 7.6796975,12.2832 7.2851527,11.499995 c -0.030236,0.381804 -0.1239685,0.758033 -0.2849764,1.10742 -0.1114961,0.225676 -0.2520945,0.438648 -0.4277291,0.613282 -0.1783937,0.174576 -0.3926552,0.3072 -0.6210898,0.378908 C 6.1452472,13.461993 6.3054991,13.292557 6.427918,13.103512 6.5473511,12.912873 6.6391936,12.70789 6.691729,12.490231 6.8115401,12.062797 6.8190991,11.609287 6.7680755,11.173822 6.7151621,10.738458 6.5840125,10.321996 6.3637794,9.9687457 6.1457007,9.6130544 5.8420913,9.3090216 5.488781,9.080073 5.3081196,8.9606777 5.1376629,8.875147 4.9379905,8.8144478 4.7441007,8.7424478 4.537096,8.7139501 4.3246866,8.69921 4.1145448,8.688249 3.8867905,8.688627 3.6743055,8.70488 3.461896,8.721132 3.2505826,8.76883 3.0434645,8.8357272 2.2120063,9.0994241 1.4823307,9.7103848 0.94578896,10.49393 1.2273638,9.5799268 1.9164094,8.752781 2.8539968,8.335729 v 0.00983 C 3.0875716,8.2387496 3.3346393,8.1640283 3.5922897,8.1209417 c 0.2554961,-0.048189 0.5014677,-0.064441 0.761726,-0.064441 0.2150551,0.00161 0.4340787,0.02948 0.6503811,0.082016 A 4.3437501,4.8125 0 0 1 4.4614299,7.5056994 c -0.069921,-0.00341 -0.1402205,-0.00605 -0.2108977,-0.00605 z m 2.2949291,1.611326 C 6.6881763,9.2764912 6.8147905,9.4559432 6.9198613,9.6484345 7.170066,10.103138 7.2872314,10.6126 7.2966802,11.107419 L 8.456844,11.15625 C 8.3638676,10.487932 8.1178204,9.8686638 7.7517731,9.3378934 A 4.3437501,4.8125 0 0 1 6.5447432,9.1113485 Z M 2.4199181,9.7832011 c -0.1938898,0.1376126 -0.3560315,0.3079559 -0.478526,0.4960929 -0.119811,0.190867 -0.2108976,0.396393 -0.263811,0.613282 -0.1194331,0.427355 -0.1273701,0.88281 -0.076347,1.318359 0.052913,0.435387 0.1844409,0.849872 0.4042961,1.203126 0.2177008,0.355691 0.5236913,0.6598 0.876926,0.888673 0.1806614,0.119395 0.3499842,0.204888 0.5488251,0.265625 0.1938898,0.07177 0.4008567,0.100498 0.613304,0.115238 0.2101417,0.01096 0.4398614,0.0102 0.6523464,-0.0061 0.2127879,-0.01587 0.4216068,-0.06365 0.6288761,-0.130845 0.8314583,-0.263962 1.561096,-0.872647 2.0976756,-1.656249 -0.2785512,0.910953 -0.9658961,1.736575 -1.9062425,2.15625 v -0.0079 c -0.2335748,0.106851 -0.4806047,0.181761 -0.7382929,0.224621 -0.2551181,0.04819 -0.5033953,0.06251 -0.7636536,0.06251 -0.2577637,-0.0053 -0.519874,-0.03848 -0.7773732,-0.113272 C 2.9824252,15.140587 2.7259464,15.015749 2.5133102,14.87277 2.0776441,14.585677 1.7031307,14.197462 1.4508094,13.73605 1.1953134,13.271161 1.0773921,12.750036 1.0719118,12.245817 1.068359,11.741095 1.1588409,11.236626 1.3708724,10.777066 1.4823685,10.551352 1.6229669,10.338391 1.7986015,10.163784 1.9769953,9.9892081 2.1912189,9.8546947 2.4196913,9.7829252 Z m 1.830085,0.4062499 c 0.8632819,0 1.5624945,0.698075 1.5624945,1.560548 0,0.863036 -0.6992126,1.562498 -1.5624945,1.562498 -0.8633197,0 -1.5624945,-0.699942 -1.5624945,-1.562498 0,-0.86304 0.6992126,-1.560548 1.5624945,-1.560548 z" />
  <path style="fill:#79bbe8" d="m 11.488025,15.858818 c 0,-0.508093 0,-0.986766 0,-1.464847 0,-0.353914 -0.03893,-0.378784 -0.340535,-0.212031 q -1.022778,0.56287 -2.0425704,1.128098 c -0.1938898,0.107641 -0.408189,0.145399 -0.6238111,0.174539 -0.3189921,0.04581 -0.6386267,0.08115 -0.9797291,0.07174 0.042709,-0.08115 0.1160315,-0.115653 0.1674331,-0.166526 0.303874,-0.290192 0.6138331,-0.574624 0.9165354,-0.866872 0.4769386,-0.459073 0.9489638,-0.9242 1.4253351,-1.384422 0.0669,-0.06157 0.05405,-0.094 -0.026456,-0.133077 C 9.453203,12.729169 8.9394518,12.417006 8.3933857,12.170827 8.0781731,12.02917 7.8555967,11.792874 7.6630298,11.513182 c 0.058583,-0.03099 0.1065827,-0.0189 0.1526929,-0.0189 0.4594772,0 0.9185764,0.002 1.3780535,0 0.2498268,0 0.2849764,-0.06187 0.1678111,-0.270312 C 8.9843904,10.532137 8.607118,9.841077 8.2199054,9.1559092 8.0997164,8.9425171 8.05474,8.7134059 8.0222361,8.480432 7.9783931,8.1633675 7.9334171,7.8440957 7.9530711,7.4999848 8.1031183,7.6566084 8.2399372,7.7967155 8.3735057,7.941358 Q 9.3572033,8.9969045 10.37091,10.02308 c 0.08353,0.08137 0.109985,0.06157 0.156473,-0.0189 0.280819,-0.545654 0.59947,-1.0703469 0.856289,-1.6284244 0.133417,-0.2901921 0.377197,-0.4795805 0.627288,-0.6659187 0.03893,0.061568 0.02646,0.1046929 0.02646,0.1515212 0,0.4635969 0,0.9283465 0,1.3929071 0,0.2548535 0.04384,0.2840315 0.264945,0.1625197 q 1.042847,-0.5696391 2.081839,-1.1470224 c 0.195024,-0.1095307 0.406375,-0.155263 0.619994,-0.1836472 0.267213,-0.030992 0.536844,-0.061871 0.80572,-0.081147 0.05518,-0.00794 0.112252,0 0.19011,0 -0.07446,0.1229103 -0.166677,0.1916977 -0.248693,0.2674772 Q 14.63165,9.3155971 13.543826,10.390842 c -0.09373,0.094 -0.08428,0.131188 0.03024,0.191169 0.539716,0.281197 1.060989,0.596655 1.615521,0.849797 0.262677,0.118601 0.445908,0.334903 0.61697,0.558878 0.0189,0.01852 0.04384,0.04581 0.03024,0.07174 -0.01512,0.0189 -0.06274,0.0189 -0.09373,0.0189 q -0.689424,0 -1.378356,0 c -0.05329,0 -0.106583,0.0019 -0.159496,0.0023 -0.118299,0 -0.14778,0.06157 -0.09713,0.159307 q 0.181417,0.348473 0.369638,0.689212 c 0.281575,0.512081 0.567231,1.022181 0.84771,1.534991 0.144756,0.264491 0.16063,0.563429 0.199559,0.854317 0.02646,0.157946 0.03893,0.340309 0.03893,0.52354 0,0.0573 -0.0011,0.104693 -0.0022,0.155036 l 2.27e-4,-0.0079 c -0.116078,-0.104693 -0.254031,-0.206438 -0.377244,-0.329084 -0.216567,-0.220044 -0.420397,-0.453902 -0.635338,-0.6755 -0.464278,-0.48009 -0.932183,-0.955389 -1.394835,-1.435502 -0.07786,-0.07174 -0.116032,-0.08115 -0.174236,0.0189 -0.27137,0.521775 -0.578419,1.027404 -0.819855,1.566984 -0.134174,0.304554 -0.370016,0.520033 -0.665159,0.724229 z m 0.26759,-4.885874 c -0.03024,0.0189 -0.04989,0.03099 -0.06916,0.06187 -0.222614,0.22303 -0.442696,0.447053 -0.667351,0.665918 -0.06652,0.06157 -0.05443,0.107074 0.0076,0.165203 q 0.326551,0.319333 0.645846,0.646697 c 0.0582,0.06157 0.096,0.07173 0.162519,0.0083 0.218079,-0.22647 0.441638,-0.447614 0.667352,-0.6679 0.04989,-0.0565 0.06123,-0.07174 0.0023,-0.136516 -0.228661,-0.22303 -0.452825,-0.449972 -0.678576,-0.67553 -0.02646,-0.0189 -0.04384,-0.03099 -0.07105,-0.06157 z" />
</svg>
